X:1
T:Gaddo io mene volentan
T:Girolamo Scotto
T:Source : Madrigali a tre voci---Venetia---G.Scotto---1541. Editor: André Vierendeels (28/07/16).
T:Notes : Original clefs : C3, C4, F4 Editorial accidentals above the staff Original note values have been halved Square bracket indicates ligature "Tertii toni"
T:Gaddo io mene volentan
T:©
T:©
T:©
T:©
T:©
T:©
T:©
T:©
T:©
C:Girolamo Scotto
Z:©
%%score [ 1 2 3 ]
L:1/8
Q:1/4=124
M:2/2
K:F
V:1 treble-8 nm="Tenor 1" snm="T 1"
V:2 treble-8 nm="Tenor 2" snm="T 2"
V:3 bass nm="Bass" snm="B"
V:1
 z8 | z8 | z8 | z8 | z4 d4 | d6 c2 | d2 e2 f3 e | d2 c2 B4 |"^b" c2 d2 e2 d2- | dc/B/ c2 d4 | %10
w: ||||Gad-|do io|me- ne vo- *|* * lon-|tan da- i pa-|* tri- i li- ti,|
 z2 c2 d2 e2 | f4 e4- | e4 z4 | z4 z2 A2 | A2 A2 c4 | d2 f4 e2 | e4 d2 f2 | f2 f2 f4 | f2 c4 f2- | %19
w: dai pa- tri'i|li- ti,|_|et|da voi mio|so- ste- gno'et|mi- o, et|mio con- si-|glio, sol per-|
 f2 d2 e2 f2 | d2 c2 f4- | f2 e2 d2 B2 | c2 d3 c c2- | c2 B2 c4 | z4 z2 c2 | c2 c2 G2 G2 | %26
w: * che in que-|sto mi- o|_ gra- vo- so|e si- * *|* * glio,|non|sia che mi con-|
 B4 A3 G | A2 B3 A A2- | A2 G2 A4 | A4 A2 A2 | G2 G2 B2 B2 | A2 A2 c4 | F3 G AB c2- | cB A4 G2 | %34
w: so- li c|chi m'a- * i-|* * ti,|non sia che|mi con- so- li|o chi m'a-|i- * * * *||
 A8 || G8 | B4 B4 | A4 c4 | B4 f4 | d4 f4 | d8 | c8 | z2 f2 f2 f2 | f2 d3 c/B/ c2 | d2 A2 A2 A2 | %45
w: ti.|Dhe|co- me'hog-|gi sia|noi da|noi re-|pi-|ti,|io for- se'a|mor- * * * *|te, io for- se'a|
 B4 A4 | z8 | z8 | z2 G2 d4- | d2 c2 d2 e2 | f4 e4 | d8- | d8 | z2 f2 e2 e2 | f2 c2 f4 | e4 z2 e2 | %56
w: mor- te,|||et voi|_ cer- to'a pe-|ri- gli-|o,|_|vi mo- ve'a|far ver- mi-|glio, gen-|
 e2 e2 d4- | d4 z2 d2- | d2 c2 B2 A2 | G2 F2 B4 | A6 A2 | B2 c2 B2 G2 | A4 z4 | A4 A2 A2 | %64
w: te peg- gior,|_ d'an-|* tro- po- fa-|gi et sci-|ti, et|sci- * * *|ti,|ma po- scia|
 G2 G2 B2 B2 | B6 B2 | c2 A4 G2 | A8 | z2 G2 G2 G2 | c4 A2 B2 | G4 A2 c2- | cB/A/ B2 c4- | c8 | %73
w: ch'el de- stin si|fug- ge'in-|dar- * *|no,|cia- scun sof-|fri- sca do-|vun- qu'è si-|* * * * a,||
 z8 | z2 e2 e2 e2 | f2 f2 e4 | e2 e2 f2 c2- | c2 f4 e2 | d2 c2 B2 A2- | A2 G2 A4- | A8 |] %81
w: |For- tu- na,o|bo- na'o re-|a ch'el- la si|_ mo- *||* * stri.|_|
V:2
 z8 | z8 | A4 A4- | A2 G2 A2 B2 | G3 A B3 A | G2 F2 G2 A2 | B2 G2 d3 c | B2 A2 G4 | z2 F2 G2 B2- | %9
w: ||Gad- do|_ io me- ne|vo- * * *|* * lon- tan|da- i pa- tri-|i li- ti,|da- i pa|
 B2 AG A4- | A2 G2 A2 c2- | cB/A/ B2 cBAG | A3 G F2 E2 | D2 F4 E2 | F4 z2 A2 | A2 A2 c4 | %16
w: _ tri- i li-|||||ti, et|da voi mio|
 c2 BA B2 A2- | A2 d2 d2 d2 | A4 A3 G | A2 B2 G2 F2- | F2 A4 B2 | A2 c2 B2 G2 | A2 B2 A4- | %23
w: so- sten- * * gno,|_ et mio con-|si- gli- *|* * o, sol|_ per- che|in que- sto mi-|o gra- vo-|
 A2 GF E2 A2- | A2 G2 A4- | A4 E3 F | G4 z4 | z8 | z8 | F4 F2 F2 | E2 E2 D2 D2 | F2 F2 E4 | %32
w: * so _ e si-|||glio,|||non sia che|mi con- so- li|o chi m'a-|
 D3 E F3 G | A2 F4 ED | E8 || E8 | G4 G4 |"^b" F4 E4 | G4 A4 | B4 A4- | A2 GF G4 | A4 z2 A2 | %42
w: i- * * *||ti.|Dhe|co- me'hog-|gi sia|noi da|noi re-|* * * pi-|ti, io|
 A2 A2 B4 | A4 G4 | A2 F2 F2 F2 | G4 F3 E | FG A4 G2 | A2 c4 B2 | c2 B4 AG | F6 E2 | D2 d4 c2 | %51
w: for- se'a mor-||te, io for- se'a|mo- * *|||te, et voi _|cer- to'a|pe- ri- gli-|
 d2 A2 B4- | B2 A2 B4 | A3 B c4 | z2 A2 A2 A2 | c2 c2 G3 F | G2 A2 B2 F2 | F2 F2 B2 G2 | A4 z2 F2 | %59
w: o, sour' al|_ _ Te-|* * bro|cui muo- ve|a far ver- *|mi- gli- o, gen-|te peg- * *|gior, d'an-|
 E2 D2 G2 G2 | F6 E2 | D2 F4 E2 | F4 z4 | E4 E2 E2 | E2 E2 G2 G2 | G6 F2 | E4 D4 | E2 F2 F2 F2 | %68
w: tro- po- fa- gi,|et sci-|ti, et sci-|ti,|ma po- scia|ch'el de- stin si|fug- ge'in-|dar- *|no, cia- scun sof-|
 E4 E4- | E2 F4 ED | E2 G3 F/E/ F2 | G4 z2 G2 | G2 G2 A3 G |"^-natural" AB c4 B2 | c2 G2 G2 G2 | %75
w: fri- sca|_ hu- * *|* mil, _ _ _|_ do-|vun- qu'è si- *||a, For- tu- na'o|
 A2 B2 c4- | c2 c2 A2 G2 | A6 A2 | B2 F2 G2 F2- | F2 ED E4- | E8 |] %81
w: bo- na'o re-|* a ch'el- la|si- a,|c'el- la si- [no-|* * * stri].|_|
V:3
 D,4 D,4- | D,2 C,2 D,2 E,2 | F,3 E, D,2 C,2 | D,2 _E,2 D,2 B,,2 | C,4 G,,4- | G,,2 B,,4 A,,2 | %6
w: Gad- do|_ io me- ne|vo- * * lon-|tan pa- tri- i|li- ti,|_ pa- tri-|
"^b" G,,2 C,2 B,,4 |"^b" z4 z2 E,2 |"^b" E,2 D,2 C,2 B,,2 |"^b" E,4 D,2 F,2 | F,2 _E,2 D,2 C,2 | %11
w: i li- ti,|lon-|tan da i pa-|tri- i li-|li, pa- tri- i|
 D,4 C,4 | z2 A,,2 A,,2 A,,2 | B,,4 C,4 | F,,2 F,2 F,2 F,2 | D,4 A,,2 A,2 | A,2 A,2 D,4- | %17
w: li- ti,|et da voi|mio so-|ste- gno'et mio con-|si- glio, et|mio con- si-|
 D,4 B,4 | F,8 | z4 z2 B,,2- | B,,2 F,4 D,2 | D,2 C,2 G,4 | F,2 D,2 F,3 E, | D,4 C,4 | B,,4 A,,4 | %25
w: |glio,||sol per- chei'in|que- sto mi-|o gra- vo- so|e con|si- glio,|
 z2 A,,2 C,2 C,2 | G,,A,,B,,C, D,E, F,2- | F,E, D,4 C,2 | B,,4 A,,4 | F,,4 F,,2 F,,2 | %30
w: non- sia che|mi _ _ _ _ _ _|_ _ _ con-|so- li,|non dia che|
 C,2 C,2 B,,2 B,,2 | D,2 D,2 A,,4 | B,,4 F,,4 | F,,2 A,,2 B,,4 | A,,8 || C,8 | G,,4 G,,4 | %37
w: mi con- so- li,|o chi m'a-|i- ti,o|chi m'a- i-|ti.|Dhe|co- me'hog-|
 D,4 C,4 | _E,4 D,4 | G,4 D,4 | B,,8 | A,,8- | A,,4 z2 D,2 | D,2 D,2 _E,4 | D,4 z4 | G,,4 D,4- | %46
w: gi sia|noi da|noi re-|pi-|ti,|_ io|for- se'a mor-|te,|et voi|
 D,2 C,2 D,2 E,2 | F,3 E, D,4 | C,2 G,,2 G,,2 G,,2 | B,,2 A,,2 B,,2 C,2 | B,,4 z4 | z2 D,2 G,4- | %52
w: _ cer- to'a pe-|ri- * *|glio, et voi cer-|to'a pe- ri- gli-|o,|sour' al|
 G,2 F,2 G,2 D,2 | D,2 D,2 A,3 G, | F,3 E, D,4 | C,2 A,,2 C,4- | C,2 C,2 B,,4- | B,,4 G,,4 | z8 | %59
w: _ Te- bro cui|muo- ve'a far ver-|mi- * *|glio, a far|_ ver- mi|_ glio,||
 z2 B,,2 G,,2 G,,2 | D,6 C,2 | B,,2 A,,2 G,,4 | F,,4 z4 | A,,4 A,,2 A,,2 | C,2 C,2 G,,2 G,,2 | %65
w: ch'an- tro- po-|fa- *|gi, et sci-|ti,|ma po- scia|ch'el de- stin si|
"^b" E,6 D,2 | C,4 B,,4 | A,,2 F,,2 F,,2 F,,2 | C,4 C,4- | C,2 A,,2 D,2 B,,2 | C,3 B,, A,,4 | %71
w: fug- ge'in-|dar- *|no, cia- scun sof-|fri- sca,|_ sof- fri- *|* sca hu-|
 G,,4 z2 C,2 | C,2 C,2 F,4- | F,2 E,2 D,4 | C,8 | z4 z2 C,2 | C,2 C,2 D,2 E,2 | F,3 E, D,2 C,2 | %78
w: mil, do-|vun- qu'è si|_ _ _|a,|For-|tu- na'o bo- na'o|re- a ch'el la|
 B,,3 A,, G,,2 A,,2 | B,,4 A,,4- | A,,8 |] %81
w: si _ _ mo-|* stri.|_|

